assets/Logo/MB--Logo--CombV-Squircle--Black.svg

<svg height="740" viewBox="0 0 740 740" width="740" xmlns="http://www.w3.org/2000/svg"><g fill="none" fill-rule="evenodd"><g transform="translate(120 30)"><rect fill="#000" height="500" rx="50" width="500"/><path d="m430 180v100h-300v.001l-12.907363.000293c13.6612 60.675936 67.877706 105.998707 132.679911 105.998707 53.574191 0 99.91317-30.977625 122.082198-75.998136l58.145254-.000864v83.999c0 19.882251-16.117749 36-36 36h-288c-19.882251 0-36-16.117749-36-36v-214zm-92.673507 130.00167c-19.091757 27.912627-51.183733 46.229933-87.553945 46.229933s-68.462188-18.317306-87.553945-46.229933zm-164.326493-106.00167c-28.211891 0-51.551244 20.861818-55.432937 48.000334l30.686759.000209c3.374064-10.445337 13.177814-18.000543 24.746178-18.000543s21.372114 7.555206 24.746178 18.000543l30.686759-.000209c-3.881693-27.138516-27.221046-48.000334-55.432937-48.000334zm154 0c-28.211891 0-51.551244 20.861818-55.432937 48.000334l30.686759.000209c3.374064-10.445337 13.177814-18.000543 24.746178-18.000543s21.372114 7.555206 24.746178 18.000543l30.686759-.000209c-3.881693-27.138516-27.221046-48.000334-55.432937-48.000334zm67-134c19.882251 0 36 16.117749 36 36v44h-360v-44c0-19.882251 16.117749-36 36-36z" fill="#fff"/></g><path d="m328.908582 635c10.975746 0 20.087687 2.905138 27.542911 7.677866v-5.395257h33.548507v100.642292h-33.548507v-5.602767c-7.455224 4.772728-16.567165 7.677866-27.542911 7.677866-27.128731 0-49.908582-22.618577-49.908582-52.5 0-30.088933 22.779851-52.5 49.908582-52.5zm125.902981-1c21.394004 0 45.695932 8.265107 47.149893 34.71345h-29.910064c-.623126-7.645224-7.685225-11.157894-17.03212-11.157894-8.723769 0-12.670236 3.306042-12.670236 7.231968 0 3.306043 2.492506 6.405458 10.385439 7.851852l18.901499 3.099415c18.901499 3.512671 31.364026 12.604289 31.364026 30.374269 0 23.142301-20.978587 33.88694-47.149893 33.88694-26.379015 0-47.773019-10.951267-49.850107-37.606238l29.910064.206628c1.453962 8.678362 8.723769 12.604288 19.316917 12.604288 8.931477 0 14.331906-2.686159 14.331906-7.025341 0-3.306043-3.115632-5.992202-9.762313-7.025341l-20.355461-3.51267c-17.447537-2.892788-29.494646-12.604289-29.494646-30.167642 0-21.076023 18.070664-33.473684 44.865096-33.473684zm-320.926004-38 50.114441 75.269118 49.907357-75.269118h26.092643v141h-34.997275v-70.707353l-31.269755 48.313235v.207353h-19.46594v-.207353l-31.476839-48.727941.207084 71.122059h-34.997275v-141zm419.714441-6v84.266197l35.051852-37.68169h40.029629l-38.162962 40.994366 41.481481 59.421127h-40.237037l-24.059259-34.783099-14.103704 15.114085v19.669014h-33.6v-147zm-218.064552 72.391304c-13.667911 0-23.608209 11.205534-23.608209 25.108696s9.940298 24.901186 23.608209 24.901186c7.455224 0 14.703358-2.075099 20.916045-9.337945v-31.126482c-6.212687-7.262846-13.460821-9.545455-20.916045-9.545455z" fill="#000" fill-rule="nonzero"/></g></svg>

<?xml version="1.0" encoding="UTF-8"?>
<svg width="740px" height="740px" viewBox="0 0 740 740" version="1.1" xmlns="http://www.w3.org/2000/svg" xmlns:xlink="http://www.w3.org/1999/xlink">
    <title>MB--Logo--CombV-Squircle--Black</title>
    <defs>
        <path d="M430,180 L430,280 L130,280 L130,280.001 L117.092637,280.001293 C130.753837,340.677229 184.970343,386 249.772548,386 C303.346739,386 349.685718,355.022375 371.854746,310.001864 L371.854746,310.001864 L430,310.001 L430,394 C430,413.882251 413.882251,430 394,430 L106,430 C86.117749,430 70,413.882251 70,394 L70,180 L430,180 Z M337.326493,310.00167 C318.234736,337.914297 286.14276,356.231603 249.772548,356.231603 C213.402336,356.231603 181.31036,337.914297 162.218603,310.00167 L162.218603,310.00167 Z M173,204 C144.788109,204 121.448756,224.861818 117.567063,252.000334 L117.567063,252.000334 L148.253822,252.000543 C151.627886,241.555206 161.431636,234 173,234 C184.568364,234 194.372114,241.555206 197.746178,252.000543 L197.746178,252.000543 L228.432937,252.000334 C224.551244,224.861818 201.211891,204 173,204 Z M327,204 C298.788109,204 275.448756,224.861818 271.567063,252.000334 L271.567063,252.000334 L302.253822,252.000543 C305.627886,241.555206 315.431636,234 327,234 C338.568364,234 348.372114,241.555206 351.746178,252.000543 L351.746178,252.000543 L382.432937,252.000334 C378.551244,224.861818 355.211891,204 327,204 Z M394,70 C413.882251,70 430,86.117749 430,106 L430,150 L70,150 L70,106 C70,86.117749 86.117749,70 106,70 L394,70 Z" id="path-1"></path>
    </defs>
    <g id="MB--Logo--CombV-Squircle--Black" stroke="none" stroke-width="1" fill="none" fill-rule="evenodd">
        <g id="Group" transform="translate(120.000000, 30.000000)">
            <rect id="Rectangle" fill="#000000" x="0" y="0" width="500" height="500" rx="50"></rect>
            <mask id="mask-2" fill="white">
                <use xlink:href="#path-1"></use>
            </mask>
            <use id="MB--Bare--White" fill="#FFFFFF" xlink:href="#path-1"></use>
        </g>
        <path d="M328.908582,635 C339.884328,635 348.996269,637.905138 356.451493,642.677866 L356.451493,637.282609 L390,637.282609 L390,737.924901 L356.451493,737.924901 L356.451493,732.322134 C348.996269,737.094862 339.884328,740 328.908582,740 C301.779851,740 279,717.381423 279,687.5 C279,657.411067 301.779851,635 328.908582,635 Z M454.811563,634 C476.205567,634 500.507495,642.265107 501.961456,668.71345 L472.051392,668.71345 C471.428266,661.068226 464.366167,657.555556 455.019272,657.555556 C446.295503,657.555556 442.349036,660.861598 442.349036,664.787524 C442.349036,668.093567 444.841542,671.192982 452.734475,672.639376 L471.635974,675.738791 C490.537473,679.251462 503,688.34308 503,706.11306 C503,729.255361 482.021413,740 455.850107,740 C429.471092,740 408.077088,729.048733 406,702.393762 L435.910064,702.60039 C437.364026,711.278752 444.633833,715.204678 455.226981,715.204678 C464.158458,715.204678 469.558887,712.518519 469.558887,708.179337 C469.558887,704.873294 466.443255,702.187135 459.796574,701.153996 L439.441113,697.641326 C421.993576,694.748538 409.946467,685.037037 409.946467,667.473684 C409.946467,646.397661 428.017131,634 454.811563,634 Z M133.885559,596 L184,671.269118 L233.907357,596 L260,596 L260,737 L225.002725,737 L225.002725,666.292647 L193.73297,714.605882 L193.73297,714.813235 L174.26703,714.813235 L174.26703,714.605882 L142.790191,665.877941 L142.997275,737 L108,737 L108,596 L133.885559,596 Z M553.6,590 L553.6,674.266197 L588.651852,636.584507 L628.681481,636.584507 L590.518519,677.578873 L632,737 L591.762963,737 L567.703704,702.216901 L553.6,717.330986 L553.6,737 L520,737 L520,590 L553.6,590 Z M335.535448,662.391304 C321.867537,662.391304 311.927239,673.596838 311.927239,687.5 C311.927239,701.403162 321.867537,712.401186 335.535448,712.401186 C342.990672,712.401186 350.238806,710.326087 356.451493,703.063241 L356.451493,671.936759 C350.238806,664.673913 342.990672,662.391304 335.535448,662.391304 Z" id="形状结合" fill="#000000" fill-rule="nonzero"></path>
    </g>
</svg>
